X:13
T:Starry Nights of Shetland
% Nottingham Music Database
S:Kevin Briggs
N:transposed to key of D, and modified, by MB
R:Waltz
M:3/4
L:1/4
K:D
A|\
"D"f2d|"D"ABA|"Em"G3|"A"c2B|"A"A2c    |"A7"e2A| "D"f>gf/e/| "D"d2A|
"D"f2d|"D"ABA|"Em"G3|"A"c2B|"A"A>ce/f/|"A7"gBc| "D"d>ed/c/| "D"def|
"G"gBg|"G"gBg|"D"fAf|"D"fAf|"D"fdf    |"Bm"agf|"Em"e>fe   |"A7"e2A|
"D"f2d|"D"ABA|"Em"G3|"A"c2B|"A"A>ce/f/|"A7"gBc| "D"d3-    | "D"d2||
